packages/core/src/Assets/SvgComponents/header/help-centre.svg

<svg width="24" height="24" viewBox="0 0 24 24" fill="none" xmlns="http://www.w3.org/2000/svg">
<path fill-rule="evenodd" clip-rule="evenodd" d="M12 1.5C17.799 1.5 22.5 6.20101 22.5 12C22.5 17.799 17.799 22.5 12 22.5C6.20101 22.5 1.5 17.799 1.5 12C1.5 6.20101 6.20101 1.5 12 1.5ZM12 17.25C11.0721 17.25 10.2005 17.0093 9.44411 16.5869L6.19583 19.8349C7.81744 21.0382 9.8256 21.75 12 21.75C14.1744 21.75 16.1826 21.0382 17.8042 19.8349L14.5566 16.5865C13.8001 17.0091 12.9282 17.25 12 17.25ZM15.1955 16.1658L18.3926 19.3621C18.7379 19.062 19.062 18.7379 19.3621 18.3926L16.1658 15.1955C15.8861 15.5597 15.5597 15.8861 15.1955 16.1658ZM7.83478 15.1963L4.63792 18.3926C4.93805 18.7379 5.26207 19.062 5.60741 19.3621L8.80446 16.1658C8.44059 15.8862 8.11438 15.5601 7.83478 15.1963ZM19.8349 6.19583L16.5869 9.44411C17.0093 10.2005 17.25 11.0721 17.25 12C17.25 12.9282 17.0091 13.8001 16.5865 14.5566L19.8349 17.8042C21.0382 16.1826 21.75 14.1744 21.75 12C21.75 9.8256 21.0382 7.81744 19.8349 6.19583ZM2.25 12C2.25 14.1744 2.96179 16.1826 4.16507 17.8042L7.4135 14.5566C6.99086 13.8001 6.75 12.9282 6.75 12C6.75 11.0718 6.99086 10.1999 7.4135 9.44336L4.16507 6.19583C2.96179 7.81744 2.25 9.8256 2.25 12ZM12 7.5C9.51472 7.5 7.5 9.51472 7.5 12C7.5 14.4853 9.51472 16.5 12 16.5C14.4853 16.5 16.5 14.4853 16.5 12C16.5 9.51472 14.4853 7.5 12 7.5ZM4.63792 5.60741L7.83421 8.80446C8.11394 8.44034 8.44034 8.11394 8.80446 7.83421L5.60741 4.63792C5.26207 4.93805 4.93805 5.26207 4.63792 5.60741ZM18.3926 4.63792L15.1963 7.83478C15.5601 8.11438 15.8862 8.44059 16.1658 8.80446L19.3621 5.60741C19.062 5.26207 18.7379 4.93805 18.3926 4.63792ZM12 2.25C9.8256 2.25 7.81744 2.96179 6.19583 4.16507L9.44336 7.4135C10.1999 6.99086 11.0718 6.75 12 6.75C12.9282 6.75 13.8001 6.99086 14.5566 7.4135L17.8042 4.16507C16.1826 2.96179 14.1744 2.25 12 2.25Z" fill="url(#paint0_linear)"/>
<defs>
<linearGradient id="paint0_linear" x1="1.5" y1="22.5" x2="22.5" y2="1.5" gradientUnits="userSpaceOnUse">
<stop stop-color="#FF444F"/>
<stop offset="1" stop-color="#FF6444"/>
</linearGradient>
</defs>
</svg>

<svg width="24" height="24" fill="none" xmlns="http://www.w3.org/2000/svg"><path fill-rule="evenodd" clip-rule="evenodd" d="M12 1.5c5.799 0 10.5 4.701 10.5 10.5S17.799 22.5 12 22.5 1.5 17.799 1.5 12 6.201 1.5 12 1.5zm0 15.75c-.928 0-1.8-.24-2.556-.663l-3.248 3.248A9.706 9.706 0 0012 21.75a9.706 9.706 0 005.804-1.915l-3.247-3.248A5.226 5.226 0 0112 17.25zm3.195-1.084l3.198 3.196c.345-.3.669-.624.97-.97l-3.197-3.197c-.28.365-.606.691-.97.97zm-7.36-.97l-3.197 3.197c.3.345.624.669.97.97l3.196-3.197a5.283 5.283 0 01-.97-.97zm12-9l-3.248 3.248c.422.756.663 1.628.663 2.556 0 .928-.24 1.8-.663 2.557l3.248 3.247A9.706 9.706 0 0021.75 12a9.706 9.706 0 00-1.915-5.804zM2.25 12c0 2.174.712 4.183 1.915 5.804l3.248-3.247A5.226 5.226 0 016.75 12c0-.928.24-1.8.663-2.557L4.165 6.196A9.707 9.707 0 002.25 12zM12 7.5a4.5 4.5 0 100 9 4.5 4.5 0 000-9zM4.638 5.607l3.196 3.197c.28-.364.606-.69.97-.97L5.607 4.638c-.345.3-.669.624-.97.97zm13.755-.97l-3.197 3.198c.364.28.69.606.97.97l3.196-3.198c-.3-.345-.624-.669-.97-.97zM12 2.25a9.707 9.707 0 00-5.804 1.915l3.247 3.248A5.226 5.226 0 0112 6.75c.928 0 1.8.24 2.557.663l3.247-3.248A9.707 9.707 0 0012 2.25z" fill="url(#paint0_linear)"/><defs><linearGradient id="paint0_linear" x1="1.5" y1="22.5" x2="22.5" y2="1.5" gradientUnits="userSpaceOnUse"><stop stop-color="#FF444F"/><stop offset="1" stop-color="#FF6444"/></linearGradient></defs></svg>
